src/icons/android-funnel.svg

<svg xmlns="http://www.w3.org/2000/svg" width="512" height="512" viewBox="0 0 512 512">
    <path d="M208 393.5h96v-47.994h-96V393.5zm-176-288v47.994h448V105.5H32zm80 168.783h288v-49.555H112v49.555z"/>
</svg>

<?xml version="1.0" encoding="UTF-8"?>
<svg width="512px" height="512px" viewBox="0 0 512 512" version="1.1" xmlns="http://www.w3.org/2000/svg" xmlns:xlink="http://www.w3.org/1999/xlink">
    <!-- Generator: Sketch 62 (91390) - https://sketch.com -->
    <title>android-funnel</title>
    <desc>Created with Sketch.</desc>
    <g id="android-funnel" stroke="none" stroke-width="1" fill="none" fill-rule="evenodd">
        <path d="M208,393.5 L304,393.5 L304,345.506 L208,345.506 L208,393.5 Z M32,105.5 L32,153.494 L480,153.494 L480,105.5 L32,105.5 Z M112,274.283 L400,274.283 L400,224.728 L112,224.728 L112,274.283 Z" id="Shape" fill="#000000" fill-rule="nonzero"></path>
    </g>
</svg>
